X:1
T:The Very Same Jesus
T:The Very Same Jesus
T:William James Kirkpatrick
T:Eliza Edmunds Hewitt, 1891
T:Public Domain Courtesy of the Cyber Hymnal™
C:William James Kirkpatrick
Z:Public Domain
Z:Courtesy of the Cyber Hymnal™
%%score ( 1 2 ) ( 3 4 )
L:1/8
Q:1/4=88
M:2/4
K:G
V:1 treble 
V:2 treble 
V:3 bass 
V:4 bass 
V:1
 [DG] | [GB][GB] [DG]D | [CE][CG] [B,D]>[B,D] | [DG]>[DG] [DG]2 | [GB] [FA]2 [DG] | %5
w: 1.~Come,|sin- ners, to the|liv- ing One, He’s|just the same|Je- sus As|
w: 2.~Come,|feast up- on the|liv- ing bread, He’s|just the same|Je- sus As|
w: 3.~Come,|tell Him all your|griefs and fears, He’s|just the same|Je- sus As|
w: 4.~Still|fol- low Him for|clear- er light, He’s|just the same|Je- sus As|
w: 5.~Then|calm ’midst waves of|trou- ble be, He’s|just the same|Je- sus As|
w: 6.~Some|day our rap- tured|eyes shall see He’s|just the same|Je- sus Oh,|
 [GB][GB] [DG]D | [CE][CG] [B,D]>[B,D] | [DG]<[DG] [GB]2 | [FA] [DG]2 ||"^Refrain" [GB] | %10
w: when He raised the|wi- dow’s son, The|ve- ry same|Je- sus.||
w: when the mul- ti-|tudes He fed, The|ve- ry same|Je- sus.||
w: when He shed those|lov- ing tears, The|ve- ry same|Je- sus.||
w: when He gave the|blind their sight, The|ve- ry same|Je- sus.|The|
w: when He hushed the|rag- ing sea, The|ve- ry same|Je- sus.||
w: bless- èd day for|you and me! The|ve- ry same|Je- sus.||
 [Gd]<[Gd] [Gd]2 | [Ge] [Gd]2 [DB] | [DG][DG] [DG][GB] | [GB] [FA]2 [GB] | [Fc][Fc] [Fc][FA] | %15
w: |||||
w: |||||
w: |||||
w: ve- ry same|Je- sus, The|won- der work- ing|Je- sus; Oh|praise His Name, He’s|
w: |||||
w: |||||
 [GB][Gc] !fermata![Gd][DB] | [DG]<[DG] [GB]2 | [FA] [DG]2 |] %18
w: |||
w: |||
w: |||
w: just the same The|ve- ry same|Je- sus.|
w: |||
w: |||
V:2
 x | x3 D | x4 | x4 | x4 | x3 D | x4 | x4 | x3 || x | x4 | x4 | x4 | x4 | x4 | x4 | x4 | x3 |] %18
V:3
 [G,B,] | [G,D][G,D] [G,B,][B,,G,] | [C,G,][E,G,] G,>G, | [G,B,]>[G,B,] [G,B,]2 | %4
 [D,D] [D,D]2 [G,B,] | [G,D][G,D] [G,B,][B,,G,] | [C,G,][E,G,] G,>G, | [G,B,]<[G,B,] [G,D]2 | %8
 [D,C] [G,B,]2 || G, | [G,B,]<[G,B,] [G,B,]2 | [G,C] [G,B,]2 G, | [G,B,][G,B,] [G,B,][G,D] | %13
 [D,D] [D,D]2 [D,B,] | [D,A,][D,A,] [D,A,][D,D] | [G,D][G,A,] !fermata![G,B,][G,D] | %16
 [G,B,]<[G,B,] [G,D]2 | [D,C] [G,B,]2 |] %18
V:4
 x | x4 | x2 G,>G, | x4 | x4 | x4 | x2 G,>G, | x4 | x3 || G, | x4 | x3 G, | x4 | x4 | x4 | x4 | %16
 x4 | x3 |] %18

